lib/brands/icons/adobe-acrobat.svg

<svg xmlns="http://www.w3.org/2000/svg" fill="none" aria-hidden="true" viewBox="0 0 48 48"><g id="adobe-acrobat-Icon"><g id="Group"><path id="bg" fill="#B30B00" d="M6 19.0286C6 14.4681 6 12.1879 6.88752 10.4461C7.6682 8.9139 8.9139 7.6682 10.4461 6.88752C12.1879 6 14.4681 6 19.0286 6H28.9714C33.5319 6 35.8121 6 37.5539 6.88752C39.0861 7.6682 40.3318 8.9139 41.1125 10.4461C42 12.1879 42 14.4681 42 19.0286V28.9714C42 33.5319 42 35.8121 41.1125 37.5539C40.3318 39.0861 39.0861 40.3318 37.5539 41.1125C35.8121 42 33.5319 42 28.9714 42H19.0286C14.4681 42 12.1879 42 10.4461 41.1125C8.9139 40.3318 7.6682 39.0861 6.88752 37.5539C6 35.8121 6 33.5319 6 28.9714V19.0286Z"/><path id="Vector" fill="white" d="M34.3374 26.4398C32.6565 24.5966 28.0759 25.403 26.9693 25.5182C25.4005 23.9054 24.2938 22.0766 23.8456 21.3854C24.4059 19.6574 24.8542 17.7134 24.8542 15.8702C24.8542 14.1422 24.1818 12.4286 22.4028 12.4286C21.7304 12.4286 21.1701 12.7742 20.8339 13.3502C20.0495 14.7326 20.3857 17.483 21.6184 20.3486C20.946 22.4222 19.8254 25.5182 18.4946 27.923C16.7016 28.6142 12.7935 30.443 12.4573 32.5166C12.3452 33.0926 12.5693 33.7838 13.0176 34.1294C13.4658 34.5902 14.0261 34.7054 14.5865 34.7054C16.9258 34.7054 19.2791 31.379 20.96 28.3838C22.3047 27.923 24.4199 27.2318 26.5491 26.8862C29.0005 29.1902 31.2417 29.5214 32.3623 29.5214C33.9312 29.5214 34.4915 28.8302 34.7016 28.2542C34.9958 27.707 34.7857 26.9006 34.3374 26.4398ZM32.7686 27.5918C32.6565 28.0526 32.0962 28.5134 31.0876 28.283C29.8549 27.9374 28.7483 27.3614 27.8518 26.555C28.6363 26.4398 30.5273 26.2094 31.8721 26.4398C32.3203 26.555 32.8806 26.9006 32.7686 27.5918ZM21.9265 13.811C22.0386 13.5806 22.2627 13.4654 22.4868 13.4654C23.0472 13.4654 23.1592 14.1566 23.1592 14.7326C23.0472 16.115 22.823 17.5982 22.3748 18.8654C21.4783 16.3454 21.5903 14.5022 21.9265 13.811ZM21.8145 26.7854C22.3748 25.7486 23.0472 23.8046 23.2713 23.1134C23.8316 24.1502 24.8401 25.3022 25.2884 25.8638C25.4005 25.763 23.3833 26.2094 21.8145 26.7854ZM18.0184 29.435C16.4635 31.955 15.0067 33.5678 14.1102 33.5678C13.9981 33.5678 13.774 33.5678 13.6619 33.4526C13.5499 33.2222 13.4378 32.9918 13.5499 32.7614C13.6619 31.8398 15.4549 30.5726 18.0184 29.435Z"/></g></g></svg>

<svg xmlns="http://www.w3.org/2000/svg" fill="none" aria-hidden="true" viewBox="0 0 48 48"><path fill="#B30B00" d="M6 19.029c0-4.56 0-6.841.888-8.583a8.143 8.143 0 0 1 3.558-3.558C12.188 6 14.468 6 19.03 6h9.942c4.56 0 6.841 0 8.583.888a8.143 8.143 0 0 1 3.558 3.558C42 12.188 42 14.468 42 19.03v9.942c0 4.56 0 6.841-.888 8.583a8.143 8.143 0 0 1-3.558 3.558C35.812 42 33.532 42 28.97 42h-9.94c-4.56 0-6.841 0-8.583-.888a8.143 8.143 0 0 1-3.558-3.558C6 35.812 6 33.532 6 28.97v-9.94Z"/><path fill="#fff" d="M34.337 26.44c-1.68-1.843-6.261-1.037-7.368-.922-1.569-1.613-2.675-3.441-3.123-4.133.56-1.728 1.008-3.672 1.008-5.515 0-1.728-.672-3.441-2.451-3.441-.673 0-1.233.345-1.57.921-.784 1.383-.447 4.133.785 6.999-.672 2.073-1.793 5.17-3.123 7.574-1.793.691-5.702 2.52-6.038 4.594-.112.576.112 1.267.56 1.612.449.461 1.01.576 1.57.576 2.339 0 4.692-3.326 6.373-6.321 1.345-.461 3.46-1.152 5.59-1.498 2.45 2.304 4.692 2.635 5.812 2.635 1.57 0 2.13-.69 2.34-1.267.294-.547.084-1.353-.365-1.814Zm-1.568 1.152c-.112.46-.673.921-1.681.691-1.233-.346-2.34-.922-3.236-1.728.784-.115 2.675-.346 4.02-.115.448.115 1.009.46.897 1.152ZM21.927 13.81a.614.614 0 0 1 .56-.346c.56 0 .672.692.672 1.268-.112 1.382-.336 2.865-.784 4.132-.897-2.52-.785-4.363-.448-5.054Zm-.113 12.974c.56-1.036 1.233-2.98 1.457-3.672.56 1.037 1.57 2.19 2.017 2.75.113-.1-1.905.346-3.474.922Zm-3.796 2.65c-1.555 2.52-3.011 4.133-3.908 4.133-.112 0-.336 0-.448-.115-.112-.23-.224-.461-.112-.692.112-.921 1.905-2.188 4.468-3.326Z"/></svg>
